public/images/mood/mood6-union-r.svg

<svg preserveAspectRatio="none" width="100%" height="100%" overflow="visible" style="display: block;" viewBox="0 0 28.1336 40.7508" fill="none" xmlns="http://www.w3.org/2000/svg">
<g id="Union">
<path d="M13.2268 1.00343C13.7007 1.01173 13.9563 1.02491 14.4358 1.02491C17.3194 1.02509 20.7791 2.05163 23.3928 5.438C25.1071 7.6593 25.8852 10.2696 26.3079 12.3843C26.7334 14.5132 26.8961 16.7108 27.0305 18.187C27.2118 20.1766 27.1887 23.2015 26.677 26.3482C26.1786 29.4132 25.1214 33.2022 22.803 36.2134C21.8796 37.4126 20.4062 38.4866 18.7493 39.1177C16.9526 39.8019 14.5093 40.1214 11.93 39.0835C10.9339 38.6827 10.24 38.4291 9.68093 38.2232C9.22554 38.0554 8.50025 37.7963 7.84695 37.4478C6.15464 36.5446 5.14593 35.0971 4.57546 34.395C3.12853 32.6147 2.09727 29.846 1.53347 26.8823C0.93548 23.7388 0.755844 19.832 1.43679 15.4204C1.487 15.0952 1.56956 14.7823 1.67702 14.4839C1.68256 14.2152 1.70852 13.9433 1.75906 13.6704C2.13583 11.6363 2.8616 9.3145 3.91824 7.03273C4.4956 5.78599 5.22832 4.54935 6.43386 3.59132C6.98284 3.1551 7.50854 2.88293 7.63796 2.813C7.6408 2.81151 7.64411 2.81052 7.64675 2.80909C8.63647 2.07572 9.85079 1.33582 11.5198 1.09132C12.2154 0.989467 12.8484 0.996806 13.2268 1.00343Z" fill="var(--fill-0, #FFFEEF)"/>
<path d="M13.2268 1.00343L13.2443 0.00358408L13.2443 0.00358378L13.2268 1.00343ZM14.4358 1.02491L14.4359 0.024915H14.4358L14.4358 1.02491ZM23.3928 5.438L24.1845 4.82703L24.1845 4.827L23.3928 5.438ZM26.3079 12.3843L27.2885 12.1883V12.1883L26.3079 12.3843ZM27.0305 18.187L28.0264 18.0963V18.0963L27.0305 18.187ZM26.677 26.3482L27.6641 26.5087L27.6641 26.5087L26.677 26.3482ZM22.803 36.2134L23.5953 36.8235L23.5954 36.8234L22.803 36.2134ZM18.7493 39.1177L19.1052 40.0522L19.1052 40.0522L18.7493 39.1177ZM11.93 39.0835L11.5566 40.0112L11.5566 40.0112L11.93 39.0835ZM9.68093 38.2232L9.33527 39.1615L9.33527 39.1615L9.68093 38.2232ZM7.84695 37.4478L7.3761 38.33L7.3762 38.33L7.84695 37.4478ZM4.57546 34.395L5.35154 33.7644L5.35149 33.7643L4.57546 34.395ZM1.53347 26.8823L0.551087 27.0692L0.551089 27.0692L1.53347 26.8823ZM1.43679 15.4204L0.448497 15.2679L0.448494 15.2679L1.43679 15.4204ZM1.67702 14.4839L2.61788 14.8227L2.67344 14.6684L2.67681 14.5045L1.67702 14.4839ZM1.75906 13.6704L0.775782 13.4883L0.775774 13.4883L1.75906 13.6704ZM3.91824 7.03273L3.01082 6.6125L3.01081 6.61252L3.91824 7.03273ZM6.43386 3.59132L5.81174 2.8084L5.8117 2.80843L6.43386 3.59132ZM7.63796 2.813L7.17333 1.92742L7.16262 1.9332L7.63796 2.813ZM7.64675 2.80909L8.12317 3.68831L8.18532 3.65464L8.24211 3.61256L7.64675 2.80909ZM11.5198 1.09132L11.3749 0.101872L11.3748 0.101882L11.5198 1.09132ZM13.2268 1.00343L13.2093 2.00328C13.6523 2.01104 13.9475 2.02491 14.4358 2.02492L14.4358 1.02491L14.4358 0.024915C13.9651 0.0249094 13.7492 0.0124295 13.2443 0.00358408L13.2268 1.00343ZM14.4358 1.02491L14.4358 2.02492C17.0776 2.02508 20.2149 2.9572 22.6012 6.04901L23.3928 5.438L24.1845 4.827C21.3434 1.14606 17.5613 0.0251096 14.4359 0.024915L14.4358 1.02491ZM23.3928 5.438L22.6012 6.04897C24.1786 8.09287 24.9172 10.5283 25.3273 12.5803L26.3079 12.3843L27.2885 12.1883C26.8533 10.0109 26.0357 7.22573 24.1845 4.82703L23.3928 5.438ZM26.3079 12.3843L25.3273 12.5803C25.7398 14.6442 25.898 16.7776 26.0347 18.2777L27.0305 18.187L28.0264 18.0963C27.8941 16.644 27.727 14.3823 27.2885 12.1883L26.3079 12.3843ZM27.0305 18.187L26.0347 18.2777C26.2085 20.1856 26.1878 23.1261 25.69 26.1877L26.677 26.3482L27.6641 26.5087C28.1896 23.277 28.2151 20.1676 28.0264 18.0963L27.0305 18.187ZM26.677 26.3482L25.69 26.1876C25.2028 29.1836 24.1822 32.7829 22.0106 35.6033L22.803 36.2134L23.5954 36.8234C26.0605 33.6216 27.1544 29.6428 27.6641 26.5087L26.677 26.3482ZM22.803 36.2134L22.0107 35.6033C21.2126 36.6397 19.8981 37.6101 18.3934 38.1832L18.7493 39.1177L19.1052 40.0522C20.9143 39.3632 22.5466 38.1855 23.5953 36.8235L22.803 36.2134ZM18.7493 39.1177L18.3934 38.1832C16.7756 38.7993 14.5984 39.0794 12.3033 38.1558L11.93 39.0835L11.5566 40.0112C14.4201 41.1635 17.1297 40.8045 19.1052 40.0522L18.7493 39.1177ZM11.93 39.0835L12.3033 38.1558C11.2922 37.7489 10.5861 37.4909 10.0266 37.2848L9.68093 38.2232L9.33527 39.1615C9.89401 39.3673 10.5756 39.6164 11.5566 40.0112L11.93 39.0835ZM9.68093 38.2232L10.0266 37.2848C9.55443 37.1109 8.89854 36.8754 8.31769 36.5655L7.84695 37.4478L7.3762 38.33C8.10197 38.7173 8.89666 38.9999 9.33527 39.1615L9.68093 38.2232ZM7.84695 37.4478L8.31779 36.5656C6.84438 35.7792 5.97282 34.529 5.35154 33.7644L4.57546 34.395L3.79939 35.0257C4.31904 35.6652 5.4649 37.31 7.3761 38.33L7.84695 37.4478ZM4.57546 34.395L5.35149 33.7643C4.05355 32.1673 3.06531 29.5837 2.51585 26.6955L1.53347 26.8823L0.551089 27.0692C1.12924 30.1083 2.20351 33.062 3.79943 35.0257L4.57546 34.395ZM1.53347 26.8823L2.51585 26.6955C1.93902 23.6632 1.76164 19.8711 2.42509 15.573L1.43679 15.4204L0.448494 15.2679C-0.249956 19.7928 -0.068063 23.8145 0.551087 27.0692L1.53347 26.8823ZM1.43679 15.4204L2.42508 15.573C2.4648 15.3157 2.53059 15.0651 2.61788 14.8227L1.67702 14.4839L0.73617 14.1451C0.608532 14.4995 0.509187 14.8747 0.448497 15.2679L1.43679 15.4204ZM1.67702 14.4839L2.67681 14.5045C2.68131 14.2863 2.70231 14.0687 2.74234 13.8525L1.75906 13.6704L0.775774 13.4883C0.714724 13.818 0.683815 14.144 0.677237 14.4633L1.67702 14.4839ZM1.75906 13.6704L2.74233 13.8526C3.10313 11.9047 3.80239 9.66266 4.82566 7.45293L3.91824 7.03273L3.01081 6.61252C1.92081 8.96635 1.16854 11.3679 0.775782 13.4883L1.75906 13.6704ZM3.91824 7.03273L4.82566 7.45295C5.37608 6.26439 6.02837 5.19088 7.05602 4.37421L6.43386 3.59132L5.8117 2.80843C4.42828 3.90783 3.61512 5.3076 3.01082 6.6125L3.91824 7.03273ZM6.43386 3.59132L7.05598 4.37425C7.52795 3.99922 7.9818 3.76385 8.11331 3.6928L7.63796 2.813L7.16262 1.9332C7.03528 2.002 6.43773 2.31098 5.81174 2.8084L6.43386 3.59132ZM7.63796 2.813L8.10256 3.69852C8.08775 3.70629 8.07459 3.71271 8.06373 3.71781C8.05289 3.72289 8.04363 3.72699 8.03669 3.72998C8.0298 3.73296 8.0243 3.73524 8.02125 3.73649C8.01856 3.7376 8.01616 3.73857 8.01731 3.7381C8.01745 3.73804 8.02091 3.73665 8.02499 3.73497C8.02932 3.73318 8.03627 3.73028 8.04472 3.72659C8.05321 3.72289 8.06431 3.7179 8.07718 3.71175C8.09005 3.70559 8.10567 3.6978 8.12317 3.68831L7.64675 2.80909L7.17033 1.92988C7.18718 1.92075 7.20211 1.9133 7.21429 1.90747C7.22646 1.90165 7.23685 1.89699 7.24461 1.89361C7.25234 1.89023 7.25855 1.88765 7.26214 1.88617C7.26547 1.88479 7.26817 1.8837 7.26756 1.88395C7.26755 1.88395 7.26754 1.88396 7.26751 1.88397C7.26749 1.88398 7.26745 1.88399 7.26742 1.88401C7.26734 1.88404 7.26722 1.88408 7.26709 1.88414C7.26682 1.88425 7.2664 1.88442 7.26589 1.88462C7.2649 1.88503 7.26329 1.88568 7.26134 1.88648C7.25753 1.88805 7.25127 1.89064 7.24363 1.89394C7.23594 1.89726 7.22594 1.90169 7.21437 1.90712C7.20277 1.91256 7.18889 1.91934 7.17336 1.92748L7.63796 2.813ZM7.64675 2.80909L8.24211 3.61256C9.17135 2.924 10.2291 2.29107 11.6647 2.08076L11.5198 1.09132L11.3748 0.101882C9.47246 0.380574 8.10159 1.22745 7.05139 2.00563L7.64675 2.80909ZM11.5198 1.09132L11.6647 2.08077C12.2745 1.99148 12.8386 1.99679 13.2093 2.00328L13.2268 1.00343L13.2443 0.00358378C12.8583 -0.00317461 12.1563 -0.0125416 11.3749 0.101872L11.5198 1.09132Z" fill="var(--stroke-0, #F4C280)"/>
</g>
</svg>

<svg xmlns="http://www.w3.org/2000/svg" fill="none" overflow="visible" preserveAspectRatio="none" style="display:block" viewBox="0 0 28.134 40.751"><path fill="var(--fill-0, #fffeef)" d="M13.227 1.003c.474.009.73.022 1.209.022 2.883 0 6.343 1.027 8.957 4.413 1.714 2.221 2.492 4.832 2.915 6.946.425 2.13.588 4.327.723 5.803.18 1.99.158 5.014-.354 8.161-.498 3.065-1.556 6.854-3.874 9.865-.923 1.2-2.397 2.274-4.054 2.905-1.796.684-4.24 1.003-6.819-.035-.996-.4-1.69-.654-2.25-.86-.454-.168-1.18-.427-1.833-.775-1.692-.903-2.701-2.35-3.272-3.053-1.446-1.78-2.478-4.549-3.042-7.513-.598-3.143-.777-7.05-.096-11.462.05-.325.133-.638.24-.936q.008-.403.082-.814c.377-2.034 1.103-4.355 2.16-6.637.577-1.247 1.31-2.484 2.515-3.442.549-.436 1.075-.708 1.204-.778l.009-.004c.99-.733 2.204-1.473 3.873-1.718a10.4 10.4 0 0 1 1.707-.088"/><path fill="var(--stroke-0, #f4c280)" d="m13.227 1.003.017-1zm1.209.022v-1zm8.957 4.413.791-.611zm2.915 6.946.98-.196zm.723 5.803.995-.09zm-.354 8.161.987.16zm-3.874 9.865.792.61zm-4.054 2.905.356.934zm-6.819-.035-.373.928zm-2.25-.86-.345.938zm-1.833-.775-.47.882zm-3.272-3.053.777-.63zm-3.042-7.513-.982.187zM1.437 15.42l-.989-.152zm.24-.936.94.339.056-.155.004-.163zm.082-.814-.983-.182zm2.16-6.637-.908-.42zM6.433 3.59l-.622-.783zm1.204-.778-.465-.886-.01.006zm.009-.004.476.88.062-.034.057-.042zm3.873-1.718L11.374.1zm1.707-.088-.018 1c.443.008.739.022 1.227.022v-2c-.47 0-.687-.013-1.192-.021zm1.209.022v1c2.642 0 5.779.932 8.165 4.024l.792-.611.791-.611C21.343 1.146 17.56.024 14.435.024zm8.957 4.413-.792.611c1.578 2.044 2.316 4.48 2.726 6.531l.98-.196.982-.196c-.436-2.177-1.253-4.962-3.105-7.361zm2.915 6.946-.98.196c.412 2.064.57 4.198.707 5.698l.995-.091.996-.09c-.132-1.453-.299-3.715-.738-5.909zm.723 5.803-.996.09c.174 1.909.153 4.85-.345 7.91l.987.161.987.16c.526-3.231.551-6.34.362-8.412zm-.354 8.161-.987-.16c-.487 2.996-1.508 6.595-3.68 9.415l.793.61.792.61c2.466-3.201 3.56-7.18 4.07-10.314zm-3.874 9.865-.792-.61c-.798 1.037-2.113 2.007-3.618 2.58l.356.935.356.934c1.81-.689 3.442-1.867 4.49-3.228zm-4.054 2.905-.356-.935c-1.617.616-3.795.896-6.09-.027l-.373.928-.373.927c2.863 1.152 5.573.793 7.548.041zm-6.819-.035.373-.927c-1.01-.407-1.717-.665-2.276-.871l-.346.938-.346.938c.559.206 1.24.455 2.222.85zm-2.25-.86.347-.938c-.473-.174-1.128-.41-1.71-.72l-.47.883-.47.882c.725.387 1.52.67 1.958.831zm-1.833-.775.47-.882c-1.473-.787-2.344-2.037-2.965-2.802l-.777.631-.776.63c.52.64 1.666 2.285 3.577 3.305zm-3.272-3.053.776-.63c-1.297-1.598-2.286-4.181-2.835-7.07l-.983.187-.982.187c.578 3.04 1.653 5.993 3.248 7.957zm-3.042-7.513.983-.187c-.577-3.032-.754-6.824-.09-11.122l-.99-.153-.988-.152c-.698 4.525-.516 8.546.103 11.801zM1.437 15.42l.988.153q.061-.386.193-.75l-.941-.34-.94-.338a6 6 0 0 0-.289 1.123zm.24-.936 1 .02q.006-.327.065-.652l-.983-.182-.983-.182q-.09.496-.099.975zm.082-.814.983.183c.361-1.948 1.06-4.19 2.084-6.4l-.908-.42-.907-.42C1.92 8.966 1.169 11.368.776 13.488zm2.16-6.637.907.42c.55-1.189 1.202-2.262 2.23-3.079l-.622-.783-.622-.783c-1.384 1.1-2.197 2.5-2.801 3.805zM6.433 3.59l.622.783c.472-.375.926-.61 1.057-.681l-.475-.88-.475-.88c-.128.069-.725.378-1.351.875zm1.204-.778.465.886a1 1 0 0 1-.086.04l.008-.004a1 1 0 0 0 .098-.047l-.476-.879-.477-.88a1 1 0 0 1 .098-.045h-.002l-.005.002a1 1 0 0 0-.088.041zm.009-.004.595.804c.93-.689 1.987-1.322 3.423-1.532l-.145-.99-.145-.99C9.472.382 8.102 1.228 7.05 2.007zm3.873-1.718.145.99a9.4 9.4 0 0 1 1.544-.078l.018-1 .017-1a11.4 11.4 0 0 0-1.87.099z"/></svg>
